svgs/thin/flute.svg

<svg xmlns="http://www.w3.org/2000/svg" viewBox="0 0 640 512"><!-- Font Awesome Pro 6.0.0-alpha2 by @fontawesome - https://fontawesome.com License - https://fontawesome.com/license (Commercial License) --><path d="M608 160H32C14.375 160 0 174.375 0 192V320C0 337.625 14.375 352 32 352H608C625.625 352 640 337.625 640 320V192C640 174.375 625.625 160 608 160ZM112 336H32C23.178 336 16 328.824 16 320V192C16 183.176 23.178 176 32 176H112V336ZM624 320C624 328.824 616.822 336 608 336H128V176H608C616.822 176 624 183.176 624 192V320ZM320 224C302.359 224 288 238.344 288 256S302.359 288 320 288S352 273.656 352 256S337.641 224 320 224ZM320 272C311.172 272 304 264.812 304 256S311.172 240 320 240S336 247.188 336 256S328.828 272 320 272ZM416 224C398.359 224 384 238.344 384 256S398.359 288 416 288S448 273.656 448 256S433.641 224 416 224ZM416 272C407.172 272 400 264.812 400 256S407.172 240 416 240S432 247.188 432 256S424.828 272 416 272ZM512 224C494.359 224 480 238.344 480 256S494.359 288 512 288S544 273.656 544 256S529.641 224 512 224ZM512 272C503.172 272 496 264.812 496 256S503.172 240 512 240S528 247.188 528 256S520.828 272 512 272Z"/></svg>

<svg xmlns="http://www.w3.org/2000/svg" viewBox="0 0 640 512"><!--! Font Awesome Pro 6.3.0 by @fontawesome - https://fontawesome.com License - https://fontawesome.com/license (Commercial License) Copyright 2023 Fonticons, Inc. --><path d="M608 160H32C14.38 160 0 174.4 0 192v128c0 17.62 14.38 32 32 32h576c17.62 0 32-14.38 32-32V192C640 174.4 625.6 160 608 160zM112 336H32c-8.822 0-16-7.176-16-16V192c0-8.824 7.178-16 16-16h80V336zM624 320c0 8.824-7.178 16-16 16H128v-160h480c8.822 0 16 7.176 16 16V320zM320 224C302.4 224 288 238.3 288 256s14.36 32 32 32s32-14.34 32-32S337.6 224 320 224zM320 272C311.2 272 304 264.8 304 256S311.2 240 320 240s16 7.188 16 16S328.8 272 320 272zM416 224c-17.64 0-32 14.34-32 32s14.36 32 32 32s32-14.34 32-32S433.6 224 416 224zM416 272c-8.828 0-16-7.188-16-16s7.172-16 16-16s16 7.188 16 16S424.8 272 416 272zM512 224c-17.64 0-32 14.34-32 32s14.36 32 32 32s32-14.34 32-32S529.6 224 512 224zM512 272c-8.828 0-16-7.188-16-16s7.172-16 16-16s16 7.188 16 16S520.8 272 512 272z"/></svg>
